src/svg/lock-closed-outline.svg

<svg version="1.2" baseProfile="tiny" xmlns="http://www.w3.org/2000/svg" width="24" height="24" viewBox="0 0 24 24"><circle cx="12" cy="17" r="1.3"/><path d="M17 10h-1v-2c0-2.206-1.794-4-4-4s-4 1.794-4 4v2h-1c-1.104 0-2 .896-2 2v7c0 1.104.896 2 2 2h10c1.104 0 2-.896 2-2v-7c0-1.104-.896-2-2-2zm-7-2c0-1.104.896-2 2-2s2 .896 2 2v3h-4v-3zm7 11h-10v-7h10.003l-.003 7z"/></svg>

<?xml version="1.0" encoding="iso-8859-1"?>
<!-- Generator: Adobe Illustrator 16.2.1, SVG Export Plug-In . SVG Version: 6.00 Build 0)  -->
<svg version="1.2" baseProfile="tiny" id="Layer_1" xmlns="http://www.w3.org/2000/svg" xmlns:xlink="http://www.w3.org/1999/xlink"
	 x="0px" y="0px" width="24px" height="24px" viewBox="0 0 24 24" xml:space="preserve">
<g>
	<circle cx="12" cy="17" r="1.3"/>
</g>
<path d="M17,10h-1V8c0-2.206-1.794-4-4-4S8,5.794,8,8v2H7c-1.104,0-2,0.896-2,2v7c0,1.104,0.896,2,2,2h10c1.104,0,2-0.896,2-2v-7
	C19,10.896,18.104,10,17,10z M10,8c0-1.104,0.896-2,2-2s2,0.896,2,2v2v1h-4v-1V8z M17,19H7v-7h1h2h4h2h1.003L17,19z"/>
</svg>
